images/icons/arrow-big.svg

<svg width="50" height="50" viewBox="0 0 50 50" fill="none" xmlns="http://www.w3.org/2000/svg">
<g clip-path="url(#clip0)">
<path d="M49.998 27.9766L43.9746 22.0898C43.7285 21.8281 43.3613 21.7188 43.0137 21.8047C42.666 21.8906 42.3887 22.1563 42.291 22.5C42.1895 22.8477 42.2832 23.2188 42.5371 23.4727L46.2676 26.9766L3.01367 26.9766C2.6543 26.9727 2.31836 27.1602 2.13477 27.4727C1.95508 27.7852 1.95508 28.168 2.13477 28.4805C2.31836 28.793 2.6543 28.9805 3.01367 28.9766L46.2676 28.9766L42.5371 31.8086C42.2832 32.0625 42.1895 32.4336 42.291 32.7813C42.3887 33.125 42.666 33.3907 43.0137 33.4766C43.3613 33.5625 43.7285 33.4532 43.9746 33.1914L49.998 27.9766Z" fill="#606060"/>
</g>
<defs>
<clipPath id="clip0">
<rect width="50" height="50" fill="white" transform="translate(50) rotate(90)"/>
</clipPath>
</defs>
</svg>

<svg width="50" height="50" fill="none" xmlns="http://www.w3.org/2000/svg"><g clip-path="url(#clip0)"><path d="M49.998 27.977l-6.023-5.887a.993.993 0 00-.961-.285 1 1 0 00-.477 1.668l3.73 3.504H3.015a1.006 1.006 0 00-.88.496 1.01 1.01 0 000 1.008c.184.312.52.5.88.496h43.254l-3.73 2.832a1 1 0 00.477 1.668.992.992 0 00.96-.286l6.023-5.214z" fill="#606060"/></g><defs><clipPath id="clip0"><path fill="#fff" transform="rotate(90 25 25)" d="M0 0h50v50H0z"/></clipPath></defs></svg>
